X:1
T:España cañí 
T:Versión aproximada
T:Pasodoble
T:Pasodoble
T:Pasodoble
Z:Pasodoble
%%score 1 2
L:1/8
Q:1/4=116
M:2/4
K:C
V:1 treble-8 
V:2 tab stafflines=6 strings=E2,A2,D3,G3,B3,E4 nm="Guitarra clásica" snm="Guit."
V:1
"E""^Allegretto" [E,B,E^GBe] (3[B,EGBe]/ [B,EGBe]/ [B,EGBe]/ [B,EGBe] (3[B,EGBe]/ [B,EGBe]/ [B,EGBe]/ | %1
 [B,E^GBe] (3[B,EGBe]/ [B,EGBe]/ [B,EGBe]/ [B,EGBe]"F" [F,CFAcf] | %2
 [CFAcf] (3[CFAcf]/ [CFAcf]/ [CFAcf]/ [CFAcf] (3[CFAcf]/ [CFAcf]/ [CFAcf]/ | %3
 [CFAcf]"G" (3[G,DGBdg]/ [DGBdg]/ [DGBdg]/ [DGBdg] [CFAcf] :| %4
 [B,E^GBe] (3[B,EGBe]/ [B,EGBe]/ [B,EGBe]/ [B,EGBe] [B,EGBe] | E, [B,E^GBe] E, [B,EGBe] | %6
 E, (3[E^GBe]/ [EGBe]/ [EGBe]/ [EGBe] [EGBe] | E, [E^GBe] E, [EGBe] | [E,B,E^GBe]2 B c | %9
 e (3[E^GBe]/ [EGBe]/ [EGBe]/ [EGBe] (3[EGBe]/ [EGBe]/ [EGBe]/ | [E^GBe] [EGBe] d e/ d/ | %11
 B (3[E^GBe]/ [EGBe]/ [EGBe]/ [EGBe] (3[EGBe]/ [EGBe]/ [EGBe]/ | [E^GBe] [EGBe] G A | %13
 B (3[E^GBe]/ [EGBe]/ [EGBe]/ [EGBe] (3[EGBe]/ [EGBe]/ [EGBe]/ | %14
 [E^GBe] (3!-(!A,/ !-)!B,/ A,/ G, F, | %15
 E, (3[E^GBe]/ [EGBe]/ [EGBe]/ [EGBe] (3[EGBe]/ [EGBe]/ [EGBe]/ | [E^GBe] [EGBe] B c | %17
 [E,e] (3[E^GBe]/ [EGBe]/ [EGBe]/ [EGBe] (3[EGBe]/ [EGBe]/ [EGBe]/ | [E^GBe] d c/ B/ A/ B/ | %19
 c (3d/ c/ B/ c"C" (3[CEGce]/ [CEGce]/ [CEGce]/ | [CEGce]2 _B/ A/ G/ A/ | %21
 _B (3c/ B/ A/ B"A#" (3[_B,FBdf]/ [B,FBdf]/ [B,FBdf]/ | [_B,F_Bdf]2 A/ ^G/ F/ G/ | %23
 A (3B/ A/ G/ A"A" (3[E,A,EA^ce]/ [A,EAce]/ [A,EAce]/ | [EA^ce] (3!-(!A,/ !-)!B,/ A,/ G, F, |: %25
"E" [E,B,E^GBe] (3[B,EGBe]/ [B,EGBe]/ [B,EGBe]/ [B,EGBe] (3[B,EGBe]/ [B,EGBe]/ [B,EGBe]/ | %26
 [B,E^GBe] (3[B,EGBe]/ [B,EGBe]/ [B,EGBe]/ [B,EGBe]"F" [F,CFAcf] | %27
 [CFAcf] (3[CFAcf]/ [CFAcf]/ [CFAcf]/ [CFAcf] (3[CFAcf]/ [CFAcf]/ [CFAcf]/ | %28
 [CFAcf]"G" (3[G,DGBdg]/ [DGBdg]/ [DGBdg]/ [DGBdg] [CFAcf] :| [E,B,E^GBe] z [E,B,EGBe]2- | %30
 [E,B,EGBe]2 ^c d | [A,e] (3[EA^ce]/ [EAce]/ [EAce]/ [EAce] [EAce] | %32
 [A,e] (3[EA^ce]/ [EAce]/ [EAce]/ [EAce] [EAce] | [A,a] g/ f/ e/ d/ ^c/ d/ | %34
 [A,e] (3[EA^ce]/ [EAce]/ [EAce]/ [EAce] c | [Dd] (3e/ !-(!^f/ !-)!e/ d e | %36
 [A,^c] (3[EAce]/ [EAce]/ [EAce]/ [EAce] A | _B c/ d/ c/ B/ A/ ^G/ | %38
 [A,A] (3[EA^ce]/ [EAce]/ [EAce]/ [EAce] (3[EAce]/ [EAce]/ [EAce]/ | [EA^ce] [EAce] c d | %40
 [A,e] [A^ce] [Ee] [Ace] | [A,e] (3[EA^ce]/ [EAce]/ [EAce]/ [EAce] [EAce] | a g/ f/ e/ d/ ^c/ d/ | %43
 [A,e] (3[EA^ce]/ [EAce]/ [EAce]/ [EAce] c | [Dd] e/ e/ d e | %45
 [A,^c] (3[EAce]/ [EAce]/ [EAce]/ [EAce] A | _B c/ d/ c/ B/ A/ G/ | [A,A] (3e/ f/ e/ ^c A | %48
 _B d c B | [A,A] (3[EA^ce]/ [EAce]/ [EAce]/ [EAce] (3[EAce]/ [EAce]/ [EAce]/ | %50
 [EA^ce] (3e/ f/ e/ c A | _B d c B | %52
 [A,A] (3[EA^ce]/ [EAce]/ [EAce]/ [EAce] (3[EAce]/ [EAce]/ [EAce]/ | [EA^ce] z e2 | %54
"A" [EA^cea]3 e/ e/ | %55
"^Sin mover el acorde--------------------------------------------------------------" (3e ^c e (3e c e | %56
 [EA^cea]3 a | e3/2 e/ ^c c | A2 [EA^cea]2 | z2 A,2 |: %60
 d"CReM" (3[DAd^f]/ [DAdf]/ [DAdf]/ [DAdf] (3[DAdf]/ [DAdf]/ [DAdf]/ | [DAd^f] d e f | %62
 e/ ^f/ e/ d/ ^c"A" (3[E,A,EAce]/ [EAce]/ [EAce]/ | [EA^ce] (3[EAce]/ [EAce]/ [EAce]/ [EAce] e | %64
 [A,a] g/ ^f/ e (3[EA^ce]/ [EAce]/ [EAce]/ | [EA^ce] e ^f g | %66
 (^f/ g/) f/ e/ d"D" (3[DAdf]/ [DAdf]/ [DAdf]/ |1 [DAd^f] [DAdf] A A :|2 [DAd^f] z d e || %69
"F#" [^C^F_B^c^f]"^Sin mover el acorde--------------------------------------------------------------" (3[CFBcf]/ [CFBcf]/ [CFBcf]/ [CFBcf] (3[CFBcf]/ [CFBcf]/ [CFBcf]/ | %70
 [^C^F_B^c^f] (3c/ c/ c/ (3c B c | %71
 [^F,^f] (3[^C^F_B^cf]/ [CFBcf]/ [CFBcf]/ [CFBcf] (3[CFBcf]/ [CFBcf]/ [CFBcf]/ | %72
 [^C^F_B^c^f] z"F#" [CFBcf] [DG=Bdg] | %73
"A" [A,EA^cea] (3[EAcea]/"^Sin mover el acorde-----------------------------------------------------" [EAcea]/ [EAcea]/ [EAcea] (3[EAcea]/ [EAcea]/ [EAcea]/ | %74
 [EA^cea] (3e/ e/ e/ (3e c e | %75
 [A,a] (3[EA^cea]/ [EAcea]/ [EAcea]/ [EAcea] (3[EAcea]/ [EAcea]/ [EAcea]/ | [EA^cea] z ^f g | %77
 a/ a/ a ^f g | a/ a/ a g ^f | e/ ^f/ e/ d/ ^c"A" (3[E,A,EAce]/ [EAce]/ [EAce]/ | %80
 [EA^ce] [EAce] c/ d/ c/ d/ | [Ee] [EA^cg]2 ^f | e [Ad]2 ^c | %83
 [Dd]"D" (3[DAd^f]/ [DAdf]/ [DAdf]/ [DAdf] [DAdf] | [DAd^f]2 f g | a/ a/ a ^f g | a/ a/ a g ^f | %87
 e/ ^f/ e/ d/ ^c [EAce]/ [EAce]/ | [EA^ce] [EAce] c/ d/ c/ d/ | [Ee] g2 ^f | e [Ad]2 ^c | %91
 [Dd] z"G" [dgb] [dgb]/ [dgb]/ | [dgb] [dgb]/ [dgb]/ [dgb]/ [dgb]/ [dgb]/ [dgb]/ | %93
 [dgb] [dgb] z"C#mb5" [eg^c'] | z [eg^c'] [egc']3/2 [egc']/ |"D" [Dd^fd'] z z2 |] %96
V:2
"E" [!6!E,,!5!B,,!4!E,!3!^G,!2!B,!1!E](3[!5!B,,!4!E,!3!G,!2!B,!1!E]/[!5!B,,!4!E,!3!G,!2!B,!1!E]/[!5!B,,!4!E,!3!G,!2!B,!1!E]/ [!5!B,,!4!E,!3!G,!2!B,!1!E](3[!5!B,,!4!E,!3!G,!2!B,!1!E]/[!5!B,,!4!E,!3!G,!2!B,!1!E]/[!5!B,,!4!E,!3!G,!2!B,!1!E]/ | %1
 [!5!B,,!4!E,!3!^G,!2!B,!1!E](3[!5!B,,!4!E,!3!G,!2!B,!1!E]/[!5!B,,!4!E,!3!G,!2!B,!1!E]/[!5!B,,!4!E,!3!G,!2!B,!1!E]/ [!5!B,,!4!E,!3!G,!2!B,!1!E]"F"[!6!F,,!5!C,!4!F,!3!A,!2!C!1!F] | %2
 [!5!C,!4!F,!3!A,!2!C!1!F](3[!5!C,!4!F,!3!A,!2!C!1!F]/[!5!C,!4!F,!3!A,!2!C!1!F]/[!5!C,!4!F,!3!A,!2!C!1!F]/ [!5!C,!4!F,!3!A,!2!C!1!F](3[!5!C,!4!F,!3!A,!2!C!1!F]/[!5!C,!4!F,!3!A,!2!C!1!F]/[!5!C,!4!F,!3!A,!2!C!1!F]/ | %3
 [!5!C,!4!F,!3!A,!2!C!1!F]"G"(3[!6!G,,!5!D,!4!G,!3!B,!2!D!1!G]/[!5!D,!4!G,!3!B,!2!D!1!G]/[!5!D,!4!G,!3!B,!2!D!1!G]/ [!5!D,!4!G,!3!B,!2!D!1!G]"F"[!5!C,!4!F,!3!A,!2!C!1!F] :| %4
"E" [!5!B,,!4!E,!3!^G,!2!B,!1!E](3[!5!B,,!4!E,!3!G,!2!B,!1!E]/[!5!B,,!4!E,!3!G,!2!B,!1!E]/[!5!B,,!4!E,!3!G,!2!B,!1!E]/ [!5!B,,!4!E,!3!G,!2!B,!1!E][!5!B,,!4!E,!3!G,!2!B,!1!E] | %5
 !6!E,,[!5!B,,!4!E,!3!^G,!2!B,!1!E] !6!E,,[!5!B,,!4!E,!3!G,!2!B,!1!E] | %6
 !6!E,,(3[!4!E,!3!^G,!2!B,!1!E]/[!4!E,!3!G,!2!B,!1!E]/[!4!E,!3!G,!2!B,!1!E]/ [!4!E,!3!G,!2!B,!1!E][!4!E,!3!G,!2!B,!1!E] | %7
 !6!E,,[!4!E,!3!^G,!2!B,!1!E] !6!E,,[!4!E,!3!G,!2!B,!1!E] | %8
 [!6!E,,!5!B,,!4!E,!3!^G,!2!B,!1!E]2 !2!B,!2!C | %9
 !1!E(3[!4!E,!3!^G,!2!B,!1!E]/[!4!E,!3!G,!2!B,!1!E]/[!4!E,!3!G,!2!B,!1!E]/ [!4!E,!3!G,!2!B,!1!E](3[!4!E,!3!G,!2!B,!1!E]/[!4!E,!3!G,!2!B,!1!E]/[!4!E,!3!G,!2!B,!1!E]/ | %10
 [!4!E,!3!^G,!2!B,!1!E][!4!E,!3!G,!2!B,!1!E] !2!D!1!E/!2!D/ | %11
 !2!B,(3[!4!E,!3!^G,!2!B,!1!E]/[!4!E,!3!G,!2!B,!1!E]/[!4!E,!3!G,!2!B,!1!E]/ [!4!E,!3!G,!2!B,!1!E](3[!4!E,!3!G,!2!B,!1!E]/[!4!E,!3!G,!2!B,!1!E]/[!4!E,!3!G,!2!B,!1!E]/ | %12
 [!4!E,!3!^G,!2!B,!1!E][!4!E,!3!G,!2!B,!1!E] !3!G,!3!A, | %13
 !2!B,(3[!4!E,!3!^G,!2!B,!1!E]/[!4!E,!3!G,!2!B,!1!E]/[!4!E,!3!G,!2!B,!1!E]/ [!4!E,!3!G,!2!B,!1!E](3[!4!E,!3!G,!2!B,!1!E]/[!4!E,!3!G,!2!B,!1!E]/[!4!E,!3!G,!2!B,!1!E]/ | %14
 [!4!E,!3!^G,!2!B,!1!E](3!-(!!5!A,,/!-)!!5!B,,/!5!A,,/ !6!G,,!6!F,, | %15
 !6!E,,(3[!4!E,!3!^G,!2!B,!1!E]/[!4!E,!3!G,!2!B,!1!E]/[!4!E,!3!G,!2!B,!1!E]/ [!4!E,!3!G,!2!B,!1!E](3[!4!E,!3!G,!2!B,!1!E]/[!4!E,!3!G,!2!B,!1!E]/[!4!E,!3!G,!2!B,!1!E]/ | %16
 [!4!E,!3!^G,!2!B,!1!E][!4!E,!3!G,!2!B,!1!E] !2!B,!2!C | %17
 [!6!E,,!1!E](3[!4!E,!3!^G,!2!B,!1!E]/[!4!E,!3!G,!2!B,!1!E]/[!4!E,!3!G,!2!B,!1!E]/ [!4!E,!3!G,!2!B,!1!E](3[!4!E,!3!G,!2!B,!1!E]/[!4!E,!3!G,!2!B,!1!E]/[!4!E,!3!G,!2!B,!1!E]/ | %18
 [!4!E,!3!^G,!2!B,!1!E]!2!D !2!C/!2!B,/!3!A,/!2!B,/ | %19
 !2!C(3!2!D/!2!C/!2!B,/ !2!C"C"(3[!5!C,!4!E,!3!G,!2!C!1!E]/[!5!C,!4!E,!3!G,!2!C!1!E]/[!5!C,!4!E,!3!G,!2!C!1!E]/ | %20
 [!5!C,!4!E,!3!G,!2!C!1!E]2 !3!_B,/!3!A,/!3!G,/!3!A,/ | %21
 !3!_B,(3!2!C/!3!B,/!3!A,/ !3!B,"A#"(3[!5!_B,,!4!F,!3!B,!2!D!1!F]/[!5!B,,!4!F,!3!B,!2!D!1!F]/[!5!B,,!4!F,!3!B,!2!D!1!F]/ | %22
 [!5!_B,,!4!F,!3!_B,!2!D!1!F]2 !3!A,/!3!^G,/!4!F,/!3!G,/ | %23
 !3!A,(3!2!B,/!3!A,/!3!G,/ !3!A,"A"(3[!6!E,,!5!A,,!4!E,!3!A,!2!^C!1!E]/[!5!A,,!4!E,!3!A,!2!C!1!E]/[!5!A,,!4!E,!3!A,!2!C!1!E]/ | %24
 [!4!E,!3!A,!2!^C!1!E](3!-(!!5!A,,/!-)!!5!B,,/!5!A,,/ !6!G,,!6!F,, |: %25
"E" !6!E,,(3[!5!B,,!4!E,!3!^G,!2!B,!1!E]/[!5!B,,!4!E,!3!G,!2!B,!1!E]/[!5!B,,!4!E,!3!G,!2!B,!1!E]/ [!5!B,,!4!E,!3!G,!2!B,!1!E](3[!5!B,,!4!E,!3!G,!2!B,!1!E]/[!5!B,,!4!E,!3!G,!2!B,!1!E]/[!5!B,,!4!E,!3!G,!2!B,!1!E]/ | %26
 [!5!B,,!4!E,!3!^G,!2!B,!1!E](3[!5!B,,!4!E,!3!G,!2!B,!1!E]/[!5!B,,!4!E,!3!G,!2!B,!1!E]/[!5!B,,!4!E,!3!G,!2!B,!1!E]/ [!5!B,,!4!E,!3!G,!2!B,!1!E]"F"[!6!F,,!5!C,!4!F,!3!A,!2!C!1!F] | %27
 [!5!C,!4!F,!3!A,!2!C!1!F](3[!5!C,!4!F,!3!A,!2!C!1!F]/[!5!C,!4!F,!3!A,!2!C!1!F]/[!5!C,!4!F,!3!A,!2!C!1!F]/ [!5!C,!4!F,!3!A,!2!C!1!F](3[!5!C,!4!F,!3!A,!2!C!1!F]/[!5!C,!4!F,!3!A,!2!C!1!F]/[!5!C,!4!F,!3!A,!2!C!1!F]/ | %28
 [!5!C,!4!F,!3!A,!2!C!1!F]"G"(3[!6!G,,!5!D,!4!G,!3!B,!2!D!1!G]/[!5!D,!4!G,!3!B,!2!D!1!G]/[!5!D,!4!G,!3!B,!2!D!1!G]/ [!5!D,!4!G,!3!B,!2!D!1!G]"F"[!5!C,!4!F,!3!A,!2!C!1!F] :| %29
 [!6!E,,!5!B,,!4!E,!3!^G,!2!B,!1!E] x [!6!E,,!5!B,,!4!E,!3!G,!2!B,!1!E]2- | %30
 [!6!E,,!5!B,,!4!E,!3!G,!2!B,!1!E]2 !2!^C!2!D | %31
"A" [!5!A,,!1!E](3[!4!E,!3!A,!2!^C!1!E]/[!4!E,!3!A,!2!C!1!E]/[!4!E,!3!A,!2!C!1!E]/ [!4!E,!3!A,!2!C!1!E][!4!E,!3!A,!2!C!1!E] | %32
 [!5!A,,!1!E](3[!4!E,!3!A,!2!^C!1!E]/[!4!E,!3!A,!2!C!1!E]/[!4!E,!3!A,!2!C!1!E]/ [!4!E,!3!A,!2!C!1!E][!4!E,!3!A,!2!C!1!E] | %33
 [!5!A,,!1!A]!1!G/!1!F/ !1!E/!2!D/!2!^C/!2!D/ | %34
 [!5!A,,!1!E](3[!4!E,!3!A,!2!^C!1!E]/[!4!E,!3!A,!2!C!1!E]/[!4!E,!3!A,!2!C!1!E]/ [!4!E,!3!A,!2!C!1!E]!2!C | %35
 [!4!D,!2!D](3!1!E/!-(!!1!^F/!-)!!1!E/ !2!D!1!E | %36
 [!5!A,,!2!^C](3[!4!E,!3!A,!2!C!1!E]/[!4!E,!3!A,!2!C!1!E]/[!4!E,!3!A,!2!C!1!E]/ [!4!E,!3!A,!2!C!1!E]!3!A, | %37
 !3!_B,!2!C/!2!D/ !2!C/!3!B,/!3!A,/!3!^G,/ | %38
 [!5!A,,!3!A,](3[!4!E,!3!A,!2!^C!1!E]/[!4!E,!3!A,!2!C!1!E]/[!4!E,!3!A,!2!C!1!E]/ [!4!E,!3!A,!2!C!1!E](3[!4!E,!3!A,!2!C!1!E]/[!4!E,!3!A,!2!C!1!E]/[!4!E,!3!A,!2!C!1!E]/ | %39
 [!4!E,!3!A,!2!^C!1!E][!4!E,!3!A,!2!C!1!E] !2!C!2!D | %40
 [!5!A,,!1!E][!3!A,!2!^C!1!E] [!4!E,!1!E][!3!A,!2!C!1!E] | %41
 [!5!A,,!1!E](3[!4!E,!3!A,!2!^C!1!E]/[!4!E,!3!A,!2!C!1!E]/[!4!E,!3!A,!2!C!1!E]/ [!4!E,!3!A,!2!C!1!E][!4!E,!3!A,!2!C!1!E] | %42
 !1!A!1!G/!1!F/ !1!E/!2!D/!2!^C/!2!D/ | %43
 [!5!A,,!1!E](3[!4!E,!3!A,!2!^C!1!E]/[!4!E,!3!A,!2!C!1!E]/[!4!E,!3!A,!2!C!1!E]/ [!4!E,!3!A,!2!C!1!E]!2!C | %44
 [!4!D,!2!D]!1!E/!1!E/ !2!D!1!E | %45
 [!5!A,,!2!^C](3[!4!E,!3!A,!2!C!1!E]/[!4!E,!3!A,!2!C!1!E]/[!4!E,!3!A,!2!C!1!E]/ [!4!E,!3!A,!2!C!1!E]!3!A, | %46
 !3!_B,!2!C/!2!D/ !2!C/!3!B,/!3!A,/!3!G,/ | [!5!A,,!3!A,](3!1!E/!1!F/!1!E/ !2!^C!3!A, | %48
 !3!_B,!2!D !2!C!3!B, | %49
 [!5!A,,!3!A,](3[!4!E,!3!A,!2!^C!1!E]/[!4!E,!3!A,!2!C!1!E]/[!4!E,!3!A,!2!C!1!E]/ [!4!E,!3!A,!2!C!1!E](3[!4!E,!3!A,!2!C!1!E]/[!4!E,!3!A,!2!C!1!E]/[!4!E,!3!A,!2!C!1!E]/ | %50
 [!4!E,!3!A,!2!^C!1!E](3!1!E/!1!F/!1!E/ !2!C!3!A, | !3!_B,!2!D !2!C!3!B, | %52
 [!5!A,,!3!A,](3[!4!E,!3!A,!2!^C!1!E]/[!4!E,!3!A,!2!C!1!E]/[!4!E,!3!A,!2!C!1!E]/ [!4!E,!3!A,!2!C!1!E](3[!4!E,!3!A,!2!C!1!E]/[!4!E,!3!A,!2!C!1!E]/[!4!E,!3!A,!2!C!1!E]/ | %53
 [!4!E,!3!A,!2!^C!1!E] x !1!E2 |"A" [!5!E,!4!A,!3!^C!2!E!1!A]3 !2!E/!2!E/ | %55
 (3!2!E!3!^C!2!E (3!2!E!3!C!2!E | [!5!E,!4!A,!3!^C!2!E!1!A]3 !1!A | !2!E>!2!E !3!^C!3!C | %58
 !4!A,2 [!5!E,!4!A,!3!^C!2!E!1!A]2 | x2 !6!A,,2 |: %60
 !2!D"CReM"(3[!4!D,!3!A,!2!D!1!^F]/[!4!D,!3!A,!2!D!1!F]/[!4!D,!3!A,!2!D!1!F]/ [!4!D,!3!A,!2!D!1!F](3[!4!D,!3!A,!2!D!1!F]/[!4!D,!3!A,!2!D!1!F]/[!4!D,!3!A,!2!D!1!F]/ | %61
 [!4!D,!3!A,!2!D!1!^F]!2!D !1!E!1!F | %62
 !1!E/!1!^F/!1!E/!2!D/ !2!^C"A"(3[!5!A,,!4!E,!3!A,!2!C!1!E]/[!4!E,!3!A,!2!C!1!E]/[!4!E,!3!A,!2!C!1!E]/ | %63
 [!4!E,!3!A,!2!^C!1!E](3[!4!E,!3!A,!2!C!1!E]/[!4!E,!3!A,!2!C!1!E]/[!4!E,!3!A,!2!C!1!E]/ [!4!E,!3!A,!2!C!1!E]!1!E | %64
 [!5!A,,!1!A]!1!G/!1!^F/ !1!E(3[!4!E,!3!A,!2!^C!1!E]/[!4!E,!3!A,!2!C!1!E]/[!4!E,!3!A,!2!C!1!E]/ | %65
 [!4!E,!3!A,!2!^C!1!E]!1!E !1!^F!1!G | %66
 (!1!^F/!1!G/)!1!F/!1!E/ !2!D"D"(3[!4!D,!3!A,!2!D!1!F]/[!4!D,!3!A,!2!D!1!F]/[!4!D,!3!A,!2!D!1!F]/ |1 %67
 [!4!D,!3!A,!2!D!1!^F][!4!D,!3!A,!2!D!1!F] !3!A,!3!A, :|2 [!4!D,!3!A,!2!D!1!^F] x !2!D!1!E || %69
"F#" [!5!^C,!4!^F,!3!_B,!2!^C!1!^F](3[!5!C,!4!F,!3!B,!2!C!1!F]/[!5!C,!4!F,!3!B,!2!C!1!F]/[!5!C,!4!F,!3!B,!2!C!1!F]/ [!5!C,!4!F,!3!B,!2!C!1!F](3[!5!C,!4!F,!3!B,!2!C!1!F]/[!5!C,!4!F,!3!B,!2!C!1!F]/[!5!C,!4!F,!3!B,!2!C!1!F]/ | %70
 [!5!^C,!4!^F,!3!_B,!2!^C!1!^F](3!2!C/!2!C/!2!C/ (3!2!C!3!B,!2!C | %71
 [!6!^F,,!1!^F](3[!5!^C,!4!^F,!3!_B,!2!^C!1!F]/[!5!C,!4!F,!3!B,!2!C!1!F]/[!5!C,!4!F,!3!B,!2!C!1!F]/ [!5!C,!4!F,!3!B,!2!C!1!F](3[!5!C,!4!F,!3!B,!2!C!1!F]/[!5!C,!4!F,!3!B,!2!C!1!F]/[!5!C,!4!F,!3!B,!2!C!1!F]/ | %72
 [!5!^C,!4!^F,!3!_B,!2!^C!1!^F] x [!5!C,!4!F,!3!B,!2!C!1!F]"G"[!5!D,!4!G,!3!=B,!2!D!1!G] | %73
"A" [!6!A,,!5!E,!4!A,!3!^C!2!E!1!A](3[!5!E,!4!A,!3!C!2!E!1!A]/[!5!E,!4!A,!3!C!2!E!1!A]/[!5!E,!4!A,!3!C!2!E!1!A]/ [!5!E,!4!A,!3!C!2!E!1!A](3[!5!E,!4!A,!3!C!2!E!1!A]/[!5!E,!4!A,!3!C!2!E!1!A]/[!5!E,!4!A,!3!C!2!E!1!A]/ | %74
 [!5!E,!4!A,!3!^C!2!E!1!A](3!2!E/!2!E/!2!E/ (3!2!E!3!C!2!E | %75
 [!6!A,,!1!A](3[!5!E,!4!A,!3!^C!2!E!1!A]/[!5!E,!4!A,!3!C!2!E!1!A]/[!5!E,!4!A,!3!C!2!E!1!A]/ [!5!E,!4!A,!3!C!2!E!1!A](3[!5!E,!4!A,!3!C!2!E!1!A]/[!5!E,!4!A,!3!C!2!E!1!A]/[!5!E,!4!A,!3!C!2!E!1!A]/ | %76
 [!5!E,!4!A,!3!^C!2!E!1!A] x !1!^F!1!G | !1!A/!1!A/!1!A !1!^F!1!G | !1!A/!1!A/!1!A !1!G!1!^F | %79
 !1!E/!1!^F/!1!E/!2!D/ !2!^C"A"(3[!6!E,,!5!A,,!4!E,!3!A,!2!C!1!E]/[!4!E,!3!A,!2!C!1!E]/[!4!E,!3!A,!2!C!1!E]/ | %80
 [!4!E,!3!A,!2!^C!1!E][!4!E,!3!A,!2!C!1!E] !2!C/!2!D/!2!C/!2!D/ | %81
 [!4!E,!1!E] [!4!E,!3!A,!2!^C!1!G]2 !1!^F | !1!E [!3!A,!2!D]2 !2!^C | %83
 [!4!D,!2!D]"D"(3[!4!D,!3!A,!2!D!1!^F]/[!4!D,!3!A,!2!D!1!F]/[!4!D,!3!A,!2!D!1!F]/ [!4!D,!3!A,!2!D!1!F][!4!D,!3!A,!2!D!1!F] | %84
 [!4!D,!3!A,!2!D!1!^F]2 !1!F!1!G | !1!A/!1!A/!1!A !1!^F!1!G | !1!A/!1!A/!1!A !1!G!1!^F | %87
 !1!E/!1!^F/!1!E/!2!D/ !2!^C"A"[!4!E,!3!A,!2!C!1!E]/[!4!E,!3!A,!2!C!1!E]/ | %88
 [!4!E,!3!A,!2!^C!1!E][!4!E,!3!A,!2!C!1!E] !2!C/!2!D/!2!C/!2!D/ | [!4!E,!1!E] !1!G2 !1!^F | %90
 !1!E [!3!A,!2!D]2 !2!^C | [!4!D,!2!D] x"G" [!3!D!2!G!1!B][!3!D!2!G!1!B]/[!3!D!2!G!1!B]/ | %92
 [!3!D!2!G!1!B][!3!D!2!G!1!B]/[!3!D!2!G!1!B]/ [!3!D!2!G!1!B]/[!3!D!2!G!1!B]/[!3!D!2!G!1!B]/[!3!D!2!G!1!B]/ | %93
 [!3!D!2!G!1!B][!3!D!2!G!1!B] x"C#mb5" [!3!E!2!G!1!^c] | %94
 x [!3!E!2!G!1!^c] [!3!E!2!G!1!c]>[!3!E!2!G!1!c] |"D" [!4!D,!3!D!2!^F!1!d] x x2 |] %96

